assets/icons/House.svg

<?xml version="1.0" encoding="UTF-8"?>
<svg width="48px" height="48px" viewBox="0 0 48 48" version="1.1" xmlns="http://www.w3.org/2000/svg" xmlns:xlink="http://www.w3.org/1999/xlink">
    <title>House</title>
    <g id="House" stroke="none" stroke-width="1" fill="none" fill-rule="evenodd">
        <path d="M34.7181,23.9375 L37.7181,27.2695 L37.7181,42.5965 C37.7181,43.4235 37.0481,44.0945 36.2211,44.0965 L36.2211,44.0965 L11.2181,44.0965 C10.3891,44.0965 9.7181,43.4255 9.7181,42.5965 L9.7181,42.5965 L9.7181,27.2705 L12.7181,23.9385 L12.7181,41.0965 L34.7181,41.0965 L34.7181,23.9375 Z M23.7346,4.9994 C23.8166,5.0014 23.8976,5.0194 23.9786,5.0344 C24.0786,5.0524 24.1786,5.0704 24.2746,5.1084 C24.3736,5.1484 24.4646,5.2114 24.5546,5.2744 C24.6236,5.3214 24.6946,5.3634 24.7556,5.4234 C24.7806,5.4474 24.8146,5.4574 24.8386,5.4844 L24.8386,5.4844 L42.0506,24.6004 C42.6046,25.2164 42.5546,26.1644 41.9396,26.7194 C41.3236,27.2734 40.3756,27.2234 39.8216,26.6084 L39.8216,26.6084 L37.7156,24.2694 L34.7156,20.9374 L23.7166,8.7214 L12.7156,20.9384 L9.7156,24.2704 L7.6146,26.6034 C7.0606,27.2194 6.1126,27.2684 5.4966,26.7144 C4.8806,26.1604 4.8306,25.2114 5.3846,24.5964 L5.3846,24.5964 L22.5976,5.4804 C22.6256,5.4484 22.6656,5.4354 22.6956,5.4074 C22.7346,5.3714 22.7786,5.3464 22.8206,5.3144 C22.9366,5.2254 23.0576,5.1474 23.1886,5.0974 C23.2486,5.0744 23.3106,5.0654 23.3726,5.0514 C23.4926,5.0224 23.6126,4.9994 23.7346,4.9994 Z" id="house" fill="#0071B3"></path>
    </g>
</svg>

<?xml version="1.0" encoding="utf-8"?>
<!-- Generator: Adobe Illustrator 27.7.0, SVG Export Plug-In . SVG Version: 6.00 Build 0)  -->
<svg version="1.1" id="Layer_1" xmlns="http://www.w3.org/2000/svg" xmlns:xlink="http://www.w3.org/1999/xlink" x="0px" y="0px"
	 viewBox="0 0 48 48" style="enable-background:new 0 0 48 48;" xml:space="preserve">
<style type="text/css">
	.st0{fill:#FFFFFF;}
</style>
<g id="House">
	<path id="house" class="st0" d="M34.7,23.9l3,3.3v15.3c0,0.8-0.7,1.5-1.5,1.5l0,0h-25c-0.8,0-1.5-0.7-1.5-1.5l0,0V27.3l3-3.3v17.2
		h22V23.9z M23.7,5c0.1,0,0.2,0,0.2,0c0.1,0,0.2,0,0.3,0.1c0.1,0,0.2,0.1,0.3,0.2c0.1,0,0.1,0.1,0.2,0.1c0,0,0.1,0,0.1,0.1l0,0
		l17.2,19.1c0.6,0.6,0.5,1.6-0.1,2.1c-0.6,0.6-1.6,0.5-2.1-0.1l0,0l-2.1-2.3l-3-3.3l-11-12.2l-11,12.2l-3,3.3l-2.1,2.3
		c-0.6,0.6-1.5,0.7-2.1,0.1c-0.6-0.6-0.7-1.5-0.1-2.1l0,0L22.6,5.5c0,0,0.1,0,0.1-0.1c0,0,0.1-0.1,0.1-0.1c0.1-0.1,0.2-0.2,0.4-0.2
		c0.1,0,0.1,0,0.2,0C23.5,5,23.6,5,23.7,5z"/>
</g>
</svg>
